!!!!SEGMENT: pl-kc--40102-iii-1-saf--001-041_zielenski-mikolaj--offertoria-totius-anni-commune-ss-philippi-et-iacobi-apost-tanto-tempore-vobiscum-sum.krn
!!!cenid: 16xx:1519
!!!COM: Zieleński, Mikołaj
!!!COM-rismid: pe30013481
!!!CDT:
!!!CNT: Polish
!!!OTL: Offertoria totius anni
!!!OMV: 041
!!!PDT: 1611
!!!AGN:
!!!SMS-siglum: PL-Kc
!!!SMS-shelfmark: 40102 III/1 Saf.
!!!SMS-shelfwork: 001-041 W
!!!SMS-variant:
!!!SMS-altvar:
!!!NIFC-rismid: 990069886
!!!URL-scan: https://cyfrowe.mnk.pl/dlibra/publication/24235/edition/23926/content?ref=desc
!!!ONB-nifc: UWAGA: str. 37. Uwaga: W xml metrum 2/1 do źródłowego C| i odpowiednio 3/1 do 3/2
**kern	**kern	**kern	**kern
*group1	*group1	*group1	*group1
*part4	*part3	*part2	*part1
*staff4	*staff3	*staff2	*staff1
*I""Organo	*I""Organo	*I""Organo	*I""Organo
*I''org	*I''org	*I''org	*I''org
*Iorg	*Iorg	*Iorg	*Iorg
*ICklav	*ICklav	*ICklav	*ICklav
*clefF4	*clefC3	*clefF3	*clefG2
*k[b-]	*k[b-]	*k[b-]	*k[b-]
*g:	*g:	*g:	*g:
*M2/1	*M2/1	*M2/1	*M2/1
*met(c|)	*met(c|)	*met(c|)	*met(c|)
=1	=1	=1	=1
!	!	!LO:TX:t=P:problem:zdwojony znak przykluczowy	!
!	!	!LO:TX:a:t=Tanto tempore vobiſcum ſum.	!LO:TX:a:t=Commune SS. Philippi,& Iacobi Apoſt.  A 8.
00r	00r	1.D	1.ff
.	.	2A\	2ee\
=2-	=2-	=2-	=2-
.	.	2.B-\	2.dd\
.	.	4B-\	4dd\
.	.	2F/	2cc\
.	.	2G\	2b-/
=3	=3	=3	=3
1r	1r	2E-X/	2b-/
.	.	2E-/	2cc\
2r	2r	1D	1dd
1D	1a	.	.
=4-	=4-	=4-	=4-
.	.	0r	0r
2AA/	2a\	.	.
2.BB-/	2.f\	.	.
4BB-/	4f\	.	.
=5	=5	=5	=5
2FF/	2f\	0r	0r
2C/	2e\	.	.
2AA/	2e\	.	.
2AA/	2f#X\	.	.
=6-	=6-	=6-	=6-
1GG	1g	2r	2r
.	.	2G\	2dd\
1r	1r	2E/	2gg\
.	.	2E/	2gg\
=7	=7	=7	=7
0r	0r	1D	1ff#X
.	.	1r	1r
=8-	=8-	=8-	=8-
1.GG	1.g	1.G	1.gg
2GG/	2g\	2G\	2gg\
=9	=9	=9	=9
2.C/	2.g\	2.C/	2.ee\
4C/	4g\	4C/	4ee\
2FF/	2a\	2F/	2ff\
2BB-/	2f\	2F/	2dd\
=10-	=10-	=10-	=10-
!LO:SIC:v:s=2E-\	!	!	!
2E\	2g\	2E-X/	2b-/
!LO:SIC:v:s=2E-\	!	!	!
2E\	2g\	2G\	2cc\
2.D/	2.f#X\	1D	1dd
4D/	4f#\	.	.
=11	=11	=11	=11
!LO:N:acc=#	!	!	!
2BBn/	2g\	0r	0r
2.C/	2.e\	.	.
4C/	4e\	.	.
2GG/	2.g\	.	.
=12-	=12-	=12-	=12-
1D	.	1r	1r
!	!LO:SIC:v:s=8f#\	!	!
.	8f\	.	.
.	8e\	.	.
!	!LO:SIC:v:s=2f#\	!	!
.	2f\	.	.
1GG	1g	2r	2r
.	.	2G\	2dd\
=13	=13	=13	=13
00r	00r	2D/	2ff\
.	.	2.E-X/	2.ee-X\
.	.	4E-/	4ee-\
.	.	2BB-/	2dd\
=14-	=14-	=14-	=14-
.	.	0F	2cc\
.	.	.	2.b-/
.	.	.	8a/
.	.	.	8g/
.	.	.	2a/
=15	=15	=15	=15
!LO:TX:t=P:problem:brak pauzy	!	!	!
1ryy	1r	1.BB-	1b-
1.BB-	1.f	.	1.dd
.	.	1B-	.
=16-	=16-	=16-	=16-
.	.	.	.
2FF/	2f\	2A\	2ff\
2.C/	2.c/	2.c\	2.ee\
4C/	4c/	4G\	4ee\
=17	=17	=17	=17
2GG/	1g	2G\	2dd\
2GG/	.	2G\	1dd
2.D/	2f\	1.D	.
.	1d	.	2.ff\
4C/	.	.	.
=18-	=18-	=18-	=18-
2BB-/	.	.	.
.	.	.	4ee\
2BB-/	2g\	2D/	2dd\
1AA	(1e	1AA	1cc#X
=19	=19	=19	=19
1D	1f)	2r	2r
.	.	1F	1dd
1.BB-	1f	.	.
.	.	2F/	2dd\
=20-	=20-	=20-	=20-
.	2f\	1.D	1ff
2FF/	2a\	.	.
2GG/	2.g\	.	2dd\
2GG/	.	2D/	[<2gg\
.	4f\	.	.
=21	=21	=21	=21
0AA	2e\	2C#X/	2gg\]
.	2a\	2D/	2ff\
.	1a	2E/	1ee
.	.	2AA/	.
=22-	=22-	=22-	=22-
*M3/2	*M3/2	*M3/2	*M3/2
1.DD	1.a	1D	1dd
.	.	2d\	2dd\
1.r	1.r	2.A\	1ff
.	.	4B-\	.
.	.	2c\	2ee\
=23	=23	=23	=23
0.r	0.r	2.G\	1dd
.	.	4A\	.
.	.	2B-\	2dd\
.	.	2F/	2cc\
.	.	1G	1b-
=24-	=24-	=24-	=24-
2r	2r	1.D	1.a
2r	2r	.	.
2D/	2a\	.	.
2.AA/	1a	1.r	1.r
4BB-/	.	.	.
2C/	2g\	.	.
=25	=25	=25	=25
2.GG/	1g	0.r	0.r
4AA/	.	.	.
2BB-/	2f\	.	.
2FF/	2f\	.	.
1GG	1d	.	.
=26-	=26-	=26-	=26-
1.AA	1.c#X	2r	2r
.	.	2r	2r
.	.	2A\	2cc#X\
1.r	1.r	1F#X	1dd
!	!	!	!LO:N:acc=#
.	.	2G\	2bn/
*custos:D	*custos:f	*custos:E	*custos:cc
!!LO:LB:g=original
=27	=27	=27	=27
0.r	0.r	1E	1cc
.	.	2F/	2a/
.	.	2D/	1dd
.	.	1A	.
.	.	.	2cc#X\
=28-	=28-	=28-	=28-
2r	2r	1D	1dd
2r	2r	.	.
2D/	2f\	2D/	2dd\
1BB-	1f	1D	1dd
2GG/	2g\	2D/	2ee\
=29	=29	=29	=29
1D	2.a\	1D	2.ff\
.	4f\	.	4dd\
2C/	2g\	2G\	2ee\
2GG/	2b-X\	2G\	1gg
1D	1a	1D	.
.	.	.	2ff#X\
=30-	=30-	=30-	=30-
*M2/1	*M2/1	*M2/1	*M2/1
*met(c|)	*met(c|)	*met(c|)	*met(c|)
1GG	2b-\	2D/	2gg\
.	2r	2G\	2dd\
1r	1r	1B-	1dd
=31	=31	=31	=31
0r	0r	2.F/	2.cc\
.	.	4D/	4dd\
.	.	2E-X/	2b-/
.	.	2C/	2cc\
=32-	=32-	=32-	=32-
2r	2r	1D	1a
2D/	2f\	.	.
1F	1f	1r	1r
=33	=33	=33	=33
2.C/	2.e\	00r	00r
4AA/	4f\	.	.
2BB-/	2d\	.	.
2GG/	2e\	.	.
=34-	=34-	=34-	=34-
2.AA/	2.c/	.	.
4D/	4d\	.	.
4C/	4e\	.	.
4AA/	4f\	.	.
4BB-/	4d\	.	.
4GG/	4e\	.	.
=35	=35	=35	=35
1AA	4e\	1r	1r
.	4.d\	.	.
!	!LO:N:vis=8	!	!
.	16c#X/	.	.
!	!LO:N:vis=8	!	!
!	!LO:SIC:v:s=16Bn/	!	!
.	16B-/	.	.
.	4c#/	.	.
1BB-	1d	2r	2r
.	.	2d\	2dd\
=36-	=36-	=36-	=36-
0r	0r	4c\	4ee\
.	.	4A\	4ff\
.	.	4B-\	4dd\
.	.	4G\	2ee\
.	.	1A	.
.	.	.	4.dd\
.	.	.	16cc#X\
!	!	!	!LO:SIC:v:s=16bn\
.	.	.	16b-\
!	!	!	!LO:SIC:v:s=4cc#\
.	.	.	4dd\
=37	=37	=37	=37
1r	1r	2D/	2dd\
.	.	2B-\	2ee\
2r	2r	1.B-	1ff
2BB-/	2b-\	.	.
=38-	=38-	=38-	=38-
1BB-	1.b-	.	1ff
.	.	2B-\	.
1BB-	.	2r	2r
.	2b-\	[<2B-\	2ff\
!!LO:LB:g=original
=39	=39	=39	=39
2r	2r	2B-\]	1ff
2FF/	2a\	2c\	.
1FF	1a	1F	1ff
=40-	=40-	=40-	=40-
1FF	1a	2r	2r
.	.	2F/	2ff\
1r	1r	2D/	2ff\
.	.	2G\	2dd\
=41	=41	=41	=41
2r	2r	1C	1ee
2C/	2g\	.	.
2AA/	2a\	1r	1r
2D/	2f#X\	.	.
=42-	=42-	=42-	=42-
2GG/	2g\	0r	0r
2G\	2d\	.	.
4F\	4fny\	.	.
4D/	4f\	.	.
4E\	4e\	.	.
4C/	4e\	.	.
=43	=43	=43	=43
1G	4d\	1r	1r
.	4e\	.	.
.	2d\	.	.
1C	1e	2r	2r
.	.	2c\	2g/
=44-	=44-	=44-	=44-
0r	0r	4B-\	4b-/
.	.	4G\	4b-/
.	.	4A\	4a/
.	.	4F/	4a/
.	.	1C	4g/
.	.	.	4a/
.	.	.	2g/
=45	=45	=45	=45
2r	2r	2F/	2a/
2FF/	2f\	2F/	2cc\
4BB-/	4f\	4BB-/	4dd\
4GG/	4d\	4D/	4dd\
4AA/	4e\	4AA/	4cc\
4FF/	4f\	4A\	4ff\
=46-	=46-	=46-	=46-
1C	4g\	4G\	4ee\
.	4a\	4F/	2ff\
.	2g\	2G\	.
.	.	.	4ee\
1FF	1a	2F/	2ff\
.	.	4F/	4cc\
.	.	4F/	4cc\
=47	=47	=47	=47
2r	2r	2B-\	2dd\
4FF/	4c/	2F/	2cc\
4FF/	4c/	.	.
2C/	2c/	2r	2r
*	*lig	*	*
2GG/	2B-/	4G\	4dd\
.	.	4G\	4dd\
=48-	=48-	=48-	=48-
2r	2r	2A\	2cc#X\
*	*Xlig	*	*
4D/	4d\	2D/	2dd\
4D/	4d\	.	.
!	!LO:N:vis=4	!	!
2AA/	2c#X/	1r	1r
.	.	.	.
[y2D/	[y2d\	.	.
=49	=49	=49	=49
!LO:N:xstem:cue	!LO:N:xstem:cue	!	!
4D/]	4d\]	0r	0r
2BB-/	2d\	.	.
4GG/	2e\	.	.
1AA	.	.	.
.	2d\	.	.
.	4c#X/	.	.
=50-	=50-	=50-	=50-
1D	1d	2r	2r
.	.	4d\	4dd\
.	.	4d\	4dd\
1r	1r	2B-\	2ee\
.	.	2F/	2ff\
*custos:D	*custos:d	*custos:G	*custos:dd
!!LO:PB:g=original
=51	=51	=51	=51
0r	0r	2.G\	2.dd\
.	.	4G\	2ee\
.	.	1A	.
.	.	.	2dd\
.	.	.	4cc#X\
=52-	=52-	=52-	=52-
2r	2r	1D	1dd
4D/	4d\	.	.
4D/	4d\	.	.
2BB-/	4d\	4D/	4dd\
.	8c/	4D/	4dd\
.	8B-/	.	.
2FF/	2f\	2C/	2ff\
=53	=53	=53	=53
4C/	4c/	2C/	2ee\
4C/	4c/	.	.
2GG/	2g\	4D/	4dd\
.	.	4D/	4dd\
2D/	2d\	2D/	2dd\
!	!	!	!LO:N:acc=#
4GG/	4d\	2D/	2bn/
4GG/	4d\	.	.
=54-	=54-	=54-	=54-
2C/	2c/	2r	2r
2FF/	2c/	4F/	4cc\
.	.	4F/	4cc\
2BB-/	2r	2D/	2dd\
2GG/	4d\	2D/	[<2ee\
.	4d\	.	.
=55	=55	=55	=55
0AA	2A/	2C#X/	2ee\]
.	2a\	2D/	2.dd\
.	4e\	1E	.
!	!	!	!LO:TX:a:t=P:problem:# above
.	4e\	.	8cc#X\
!	!	!	!LO:SIC:v:s=8bn\
.	.	.	8b-\
.	2a\	.	2cc#\
=56-	=56-	=56-	=56-
1D	1d	1D	2dd\
.	.	.	1dd
[y1GG	[y1g	[y1D	.
.	.	.	2dd\
=57	=57	=57	=57
!LO:N:vis=xstem:cue	!LO:N:vis=xstem:cue	!LO:N:vis=xstem:cue	!
2GG/]	2g\]	2D/]	2.b-/
2GG/	2g\	2D/	.
.	.	.	4a/
0GG	2.G/	1D	4g/
.	.	.	4a/
.	.	.	4b-/
.	4A/	.	4cc\
=58-	=58-	=58-	=58-
.	4B-/	0D	2.dd\
.	4A/	.	.
.	4B-/	.	.
.	4c/	.	4cc\
1GG	1d	.	1b-
=59-	=59-	=59-	=59-
0DDl	0dl	0Dl	0al
==	==	==	==
*-	*-	*-	*-
!!!system-decoration: *
!!!RDF**kern: > = above
!!!RDF**kern: < = below
!!!RDF**kern: l = terminal long
!!!ENC: Filip Voros
!!!END: 2021-12-15
!!!ENC: Marta Lawrence
!!!END: 2021-12-21
